icon-svg/shutter-50.svg

<svg xmlns="http://www.w3.org/2000/svg" fill="#44739e" viewBox="0 0 24 24"><path d="M2.5 12.749h19v.475h-19Zm.23-8.661h18.54v8.328H2.73ZM2.5 2.084v1.693h19V2.084Zm3.722 1.348H3.067V2.355h3.155Zm-2.954-.876h2.753v.675H3.268z"/></svg>

<?xml version="1.0" encoding="UTF-8"?>
<svg width="24px" fill="#44739e" height="24px" viewBox="0 0 24 24" version="1.1" xmlns="http://www.w3.org/2000/svg" xmlns:xlink="http://www.w3.org/1999/xlink">
            <path d="m 2.5,12.749 h 19 v 0.475 H 2.5 Z M 2.73,4.0879998 H 21.270001 V 12.416 H 2.73 Z M 2.5,2.084 v 1.693 h 19 V 2.084 Z M 6.222,3.432 H 3.067 V 2.355 H 6.222 Z M 3.2679999,2.556 h 2.753 v 0.675 h -2.753 z"/>

</svg>
